svgs/zomoto.svg

<?xml version="1.0" encoding="UTF-8" standalone="no"?>
<svg
   width="192"
   height="192"
   viewBox="0 0 192 192"
   fill="none"
   version="1.1"
   id="svg263"
   sodipodi:docname="zomoto.svg"
   inkscape:version="1.2.1 (9c6d41e410, 2022-07-14)"
   xmlns:inkscape="http://www.inkscape.org/namespaces/inkscape"
   xmlns:sodipodi="http://sodipodi.sourceforge.net/DTD/sodipodi-0.dtd"
   xmlns="http://www.w3.org/2000/svg"
   xmlns:svg="http://www.w3.org/2000/svg">
  <defs
     id="defs267" />
  <sodipodi:namedview
     id="namedview265"
     pagecolor="#ffffff"
     bordercolor="#000000"
     borderopacity="0.25"
     inkscape:showpageshadow="2"
     inkscape:pageopacity="0.0"
     inkscape:pagecheckerboard="0"
     inkscape:deskcolor="#d1d1d1"
     showgrid="false"
     inkscape:zoom="3.0530808"
     inkscape:cx="31.934956"
     inkscape:cy="101.86432"
     inkscape:window-width="1920"
     inkscape:window-height="1009"
     inkscape:window-x="-8"
     inkscape:window-y="-8"
     inkscape:window-maximized="1"
     inkscape:current-layer="svg263" />
  <g
     id="g5189"
     style="stroke:#000000;stroke-width:2.08333;stroke-dasharray:none;stroke-opacity:1"
     transform="matrix(5.76,0,0,5.76,26.880001,26.880001)">
    <path
       d="M 11.603,17 C 10.997464,17.0057 10.393748,16.93278 9.8069998,16.783 7.1789996,16.084 6.0389996,14.387 5.9929996,14.315 5.5589996,13.575 4.767,12.57475 4.5,12.46875 H 1.375 c -0.9999996,0 -0.9999995,-0.9375 0,-0.9375 H 4.5 C 4.768,11.42625 5.5579996,10.396 5.9719996,9.689 c 0.072,-0.109 1.211,-1.77 3.8380002,-2.468 C 12.361,6.533 15.566,7.666 15.701,7.715 c 4.172,1.449 4.296,4.06 4.3,4.17 v 0.213 C 19.997,12.23 19.873,14.809 15.694,16.26 15.599,16.295 13.658,17 11.603,17 Z"
       id="path13883"
       style="stroke:#000000;stroke-width:2.08333;stroke-dasharray:none;stroke-opacity:1"
       sodipodi:nodetypes="ccccsscccccccc" />
    <path
       d="M 20.333333,23.458333 H 3.6666667 c -1.9951259,-0.0027 -3.12233879,-1.129874 -3.12500003,-3.125 V 3.6666667 C 0.54432767,1.6715408 1.6715408,0.54432791 3.6666667,0.54166667 H 19.96875 c 1.995126,0.002661 3.486922,1.65070743 3.489583,3.64583333 v 16.145833 c -0.0021,1.99497 -1.130031,3.122337 -3.125,3.125 z"
       id="path13885"
       style="stroke:#000000;stroke-width:2.08333;stroke-dasharray:none;stroke-opacity:1"
       sodipodi:nodetypes="ccccccccc" />
  </g>
</svg>

<svg width="192" height="192" viewBox="0 0 192 192" fill="none" xmlns="http://www.w3.org/2000/svg"><g style="stroke:#000;stroke-width:2.08333;stroke-dasharray:none;stroke-opacity:1"><path d="M11.603 17a6.995 6.995 0 0 1-1.796-.217c-2.628-.699-3.768-2.396-3.814-2.468-.434-.74-1.226-1.74-1.493-1.846H1.375c-1 0-1-.938 0-.938H4.5c.268-.105 1.058-1.135 1.472-1.842.072-.109 1.211-1.77 3.838-2.468 2.551-.688 5.756.445 5.891.494 4.172 1.449 4.296 4.06 4.3 4.17v.213c-.004.132-.128 2.711-4.307 4.162-.095.035-2.036.74-4.091.74Z" style="stroke:#000;stroke-width:2.08333;stroke-dasharray:none;stroke-opacity:1" transform="matrix(5.76 0 0 5.76 26.88 26.88)"/><path d="M20.333 23.458H3.667c-1.995-.002-3.123-1.13-3.125-3.125V3.667C.544 1.672 1.672.544 3.667.542h16.302c1.995.002 3.487 1.65 3.49 3.646v16.145c-.003 1.995-1.13 3.123-3.126 3.125z" style="stroke:#000;stroke-width:2.08333;stroke-dasharray:none;stroke-opacity:1" transform="matrix(5.76 0 0 5.76 26.88 26.88)"/></g></svg>
